Gruvbox-Material-Icons/apps/scalable/brave-browser-dev.svg

<svg xmlns="http://www.w3.org/2000/svg" fill="none" width="256" height="256" viewBox="0 0 256 256">
 <g clip-path="url(#clip0)">
  <g filter="url(#filter0_d)">
   <path fill="url(#paint0_linear)" d="M165.685 11.947C239.74 11.947 250.324 22.5042 250.324 96.4908V155.742C250.324 229.728 239.74 240.285 165.685 240.285H90.3152C16.2595 240.285 5.67586 229.728 5.67586 155.742V96.4908C5.67586 22.5042 16.2595 11.947 90.3152 11.947H165.685Z"/>
  </g>
  <path fill="url(#paint1_linear)" fill-rule="evenodd" opacity=".4" d="M165.068 11.9512C169.396 11.9414 173.724 11.9905 178.052 12.0888C181.927 12.1674 185.803 12.3148 189.678 12.5407C193.131 12.7372 196.583 13.0221 200.026 13.3955C203.085 13.7295 206.144 14.1815 209.174 14.7415C211.889 15.2425 214.574 15.8812 217.22 16.6573C219.62 17.3549 221.971 18.2195 224.243 19.2412C226.358 20.1844 228.384 21.3044 230.302 22.5915C232.141 23.8294 233.863 25.2442 235.437 26.8063C237.001 28.3783 238.417 30.0878 239.656 31.925C240.945 33.8408 242.066 35.8647 243.02 37.9672C244.043 40.2466 244.909 42.5849 245.617 44.9723C246.394 47.6152 247.034 50.2973 247.535 53.009C248.096 56.035 248.548 59.0807 248.883 62.1362C249.257 65.5748 249.542 69.0135 249.739 72.462C249.965 76.3232 250.112 80.1941 250.201 84.0553C250.289 88.3781 250.339 92.701 250.329 97.0141V155.226C250.339 159.549 250.289 163.862 250.201 168.185C250.112 172.056 249.965 175.917 249.739 179.778C249.542 183.227 249.257 186.675 248.883 190.104C248.548 193.159 248.096 196.215 247.535 199.241C247.034 201.943 246.394 204.625 245.617 207.268C244.909 209.655 244.043 212.003 243.02 214.273C242.066 216.385 240.945 218.399 239.656 220.315C238.417 222.152 237.001 223.872 235.437 225.434C233.863 226.996 232.141 228.411 230.302 229.649C228.384 230.936 226.358 232.056 224.243 232.999C221.971 234.021 219.62 234.885 217.22 235.593C214.574 236.369 211.889 237.007 209.174 237.499C206.144 238.068 203.085 238.51 200.026 238.845C196.583 239.218 193.131 239.503 189.678 239.699C185.803 239.925 181.927 240.073 178.052 240.161C173.724 240.249 169.396 240.299 165.068 240.289H90.942C86.614 240.299 82.286 240.249 77.9581 240.161C74.0826 240.073 70.2071 239.925 66.3316 239.699C62.8791 239.503 59.4266 239.218 55.9839 238.845C52.9248 238.51 49.8657 238.068 46.8362 237.499C44.1213 237.007 41.4361 236.369 38.7901 235.593C36.39 234.885 34.0392 234.021 31.767 232.999C29.6522 232.056 27.6259 230.936 25.7079 229.649C23.8685 228.411 22.1471 226.996 20.5733 225.434C19.0094 223.872 17.5929 222.152 16.3536 220.315C15.065 218.399 13.9437 216.385 12.9896 214.273C11.9666 212.003 11.101 209.655 10.3928 207.268C9.61574 204.625 8.97638 201.943 8.47473 199.241C7.91406 196.215 7.4616 193.159 7.12716 190.104C6.75339 186.675 6.46813 183.227 6.27141 179.778C6.04518 175.917 5.89763 172.056 5.8091 168.185C5.72058 163.862 5.6714 159.549 5.68123 155.226V97.0141C5.6714 92.701 5.72058 88.3781 5.8091 84.0553C5.89763 80.1941 6.04518 76.3232 6.27141 72.462C6.46813 69.0135 6.75339 65.5748 7.12716 62.1362C7.4616 59.0807 7.91406 56.035 8.47473 53.009C8.97638 50.2973 9.61574 47.6152 10.3928 44.9723C11.101 42.5849 11.9666 40.2466 12.9896 37.9672C13.9437 35.8647 15.065 33.8408 16.3536 31.925C17.5929 30.0878 19.0094 28.3783 20.5733 26.8063C22.1471 25.2442 23.8685 23.8294 25.7079 22.5915C27.6259 21.3044 29.6522 20.1844 31.767 19.2412C34.0392 18.2195 36.39 17.3549 38.7901 16.6573C41.4361 15.8812 44.1213 15.2425 46.8362 14.7415C49.8657 14.1815 52.9248 13.7295 55.9839 13.3955C59.4266 13.0221 62.8791 12.7372 66.3316 12.5407C70.2071 12.3148 74.0826 12.1674 77.9581 12.0888C82.286 11.9905 86.614 11.9414 90.942 11.9512H165.068ZM165.078 15.9598C169.376 15.9499 173.675 15.9991 177.973 16.0875C181.8 16.1759 185.626 16.3233 189.452 16.5394C192.836 16.7359 196.219 17.011 199.583 17.3843C202.554 17.6987 205.515 18.131 208.446 18.6812C211.023 19.1528 213.58 19.7619 216.099 20.4988C218.322 21.1472 220.495 21.9529 222.6 22.896C224.509 23.7508 226.338 24.7627 228.069 25.9221C229.692 27.0126 231.207 28.2604 232.594 29.6457C233.981 31.031 235.23 32.544 236.332 34.1651C237.492 35.8942 238.506 37.7118 239.361 39.608C240.306 41.7203 241.112 43.8916 241.761 46.1021C242.509 48.6173 243.109 51.1619 243.591 53.736C244.132 56.6638 244.565 59.6112 244.889 62.5783C245.263 65.9384 245.539 69.3083 245.735 72.688C245.952 76.5098 246.109 80.3218 246.188 84.1437C246.276 88.4371 246.325 92.7207 246.325 97.0141V155.226C246.325 159.519 246.276 163.803 246.188 168.096C246.109 171.918 245.952 175.74 245.735 179.552C245.539 182.932 245.263 186.302 244.889 189.672C244.565 192.629 244.132 195.576 243.591 198.504C243.109 201.078 242.509 203.623 241.761 206.138C241.112 208.358 240.306 210.52 239.361 212.632C238.506 214.528 237.492 216.356 236.332 218.075C235.23 219.706 233.981 221.219 232.594 222.604C231.207 223.98 229.692 225.227 228.069 226.318C226.338 227.477 224.509 228.489 222.6 229.344C220.495 230.297 218.322 231.093 216.099 231.741C213.58 232.478 211.023 233.087 208.446 233.559C205.515 234.109 202.554 234.541 199.583 234.865C196.219 235.229 192.836 235.514 189.452 235.701C185.626 235.917 181.8 236.074 177.973 236.153C173.675 236.251 169.376 236.29 165.078 236.29C165.078 236.29 165.078 236.29 165.068 236.29H90.942C90.9321 236.29 90.9321 236.29 90.9321 236.29C86.6337 236.29 82.3352 236.251 78.0368 236.153C74.2105 236.074 70.3842 235.917 66.5579 235.701C63.1742 235.514 59.7905 235.229 56.4265 234.865C53.456 234.541 50.4952 234.109 47.564 233.559C44.9869 233.087 42.4295 232.478 39.9114 231.741C37.6884 231.093 35.5146 230.297 33.4097 229.344C31.5014 228.489 29.6719 227.477 27.9407 226.318C26.3177 225.227 24.8029 223.98 23.416 222.604C22.0291 221.219 20.7799 219.706 19.6782 218.075C18.5176 216.356 17.5044 214.528 16.6487 212.632C15.7044 210.52 14.8978 208.358 14.2486 206.138C13.5011 203.623 12.901 201.078 12.4191 198.504C11.8781 195.576 11.4453 192.629 11.1207 189.672C10.7469 186.302 10.4715 182.932 10.2748 179.552C10.0584 175.74 9.90099 171.918 9.8223 168.096C9.73377 163.803 9.68459 159.519 9.68459 155.226V97.0141C9.68459 92.7207 9.73377 88.4371 9.8223 84.1437C9.90099 80.3218 10.0584 76.5098 10.2748 72.688C10.4715 69.3083 10.7469 65.9384 11.1207 62.5783C11.4453 59.6112 11.8781 56.6638 12.4191 53.736C12.901 51.1619 13.5011 48.6173 14.2486 46.1021C14.8978 43.8916 15.7044 41.7203 16.6487 39.608C17.5044 37.7118 18.5176 35.8942 19.6782 34.1651C20.7799 32.544 22.0291 31.031 23.416 29.6457C24.8029 28.2604 26.3177 27.0126 27.9407 25.9221C29.6719 24.7627 31.5014 23.7508 33.4097 22.896C35.5146 21.9529 37.6884 21.1472 39.9114 20.4988C42.4295 19.7619 44.9869 19.1528 47.564 18.6812C50.4952 18.131 53.456 17.6987 56.4265 17.3843C59.7905 17.011 63.1742 16.7359 66.5579 16.5394C70.3842 16.3233 74.2105 16.1759 78.0368 16.0875C82.3352 15.9991 86.6337 15.9499 90.9321 15.9598C90.9321 15.9598 90.9321 15.9598 90.942 15.9598H165.068C165.078 15.9598 165.078 15.9598 165.078 15.9598Z" clip-rule="evenodd"/>
  <g opacity=".2" filter="url(#filter1_f)">
   <path d="M124.057 200.379C122.217 198.937 116.27 194.196 110.841 189.843C105.411 185.489 99.5407 180.828 97.7947 179.483C93.74 176.36 93.954 176.149 108.56 168.864C123.561 161.382 126.837 160.416 132.044 161.937C137.651 163.574 161.222 175.15 161.222 176.265C161.222 176.768 157.699 179.845 153.394 183.103C149.088 186.361 143.004 191.225 139.872 193.912C132.687 200.077 128.885 203 128.053 203C127.694 203 125.896 201.82 124.057 200.379V200.379ZM82.7763 164.635C78.1214 160.342 74.9306 154.598 74.8964 150.451C74.8839 149.072 75.9429 145.095 77.2476 141.613C78.5524 138.131 79.6196 134.505 79.6196 133.555C79.6196 132.566 73.3151 125.801 64.8779 117.735C56.77 109.984 49.5298 102.465 48.7886 101.025C46.8386 97.2368 48.3678 92.7307 54.9185 82.9647C61.8952 72.5631 73.7399 57.1751 75.1879 56.6311C75.7989 56.4016 81.8941 57.2198 88.733 58.4485L101.167 60.6831L114.59 56.8416L128.012 53L141.387 56.8282L154.763 60.6567L167.554 58.3795C178.008 56.5186 180.612 56.3242 181.802 57.3164C183.866 59.0367 201.191 82.3995 204.799 88.3279C206.775 91.5738 207.867 94.6667 207.972 97.3129C208.132 101.344 208.118 101.361 192.257 116.669C183.525 125.095 176.386 132.534 176.392 133.199C176.397 133.864 177.471 137.477 178.776 141.228C181.624 149.418 181.727 152.371 179.33 157.091C176.802 162.068 169.448 168.686 166.444 168.686C165.119 168.686 159.677 166.49 154.352 163.805C147.209 160.205 142.983 157.289 138.238 152.688C134.701 149.257 131.807 145.736 131.807 144.862C131.807 143.987 136.504 138.877 142.244 133.505C148.667 127.495 152.682 123.019 152.682 121.87C152.682 120.843 151.188 116.116 149.361 111.365C145.468 101.239 145.228 97.9219 148.175 94.9851C149.349 93.8151 157.461 90.0816 166.201 86.6883C174.941 83.295 182.094 80.2231 182.095 79.8623C182.097 78.8472 174.016 77.867 165.552 77.856C159.119 77.8484 156.559 78.362 149.474 81.0888C144.7 82.9256 140.532 85.1576 139.859 86.2377C138.869 87.8277 139.234 90.7255 142.059 103.705C145.893 121.322 146.162 120.234 137.5 122.104C131.039 123.499 125.267 123.489 118.506 122.066C109.867 120.253 110.13 121.319 113.965 103.702C116.784 90.7468 117.153 87.8216 116.169 86.2347C115.471 85.1099 111.14 82.8706 105.605 80.7731C97.1285 77.5604 95.5847 77.2651 89.5828 77.7078C78.4081 78.5315 73.9024 79.2287 74.4104 80.0546C74.6779 80.4893 82.1508 83.7008 91.0173 87.1923C107.608 93.7252 109.973 95.3249 109.994 100.029C109.999 101.354 108.449 106.58 106.547 111.641C104.355 117.477 103.299 121.662 103.66 123.079C103.973 124.309 108.727 129.306 114.223 134.184C120.113 139.413 124.216 143.777 124.216 144.813C124.216 145.781 121.008 149.582 117.088 153.26C109.541 160.339 94.716 168.683 89.684 168.683C88.0458 168.683 85.6363 167.27 82.7763 164.632V164.635V164.635Z"/>
  </g>
  <path fill="url(#paint2_linear)" d="M124.057 200.379C122.217 198.937 116.27 194.196 110.841 189.843C105.411 185.489 99.5407 180.828 97.7947 179.483C93.74 176.36 93.954 176.149 108.56 168.864C123.561 161.382 126.837 160.416 132.044 161.937C137.651 163.574 161.222 175.15 161.222 176.265C161.222 176.768 157.699 179.845 153.394 183.103C149.088 186.361 143.004 191.225 139.872 193.912C132.687 200.077 128.885 203 128.053 203C127.694 203 125.896 201.82 124.057 200.379V200.379ZM82.7763 164.635C78.1214 160.342 74.9306 154.598 74.8964 150.451C74.8839 149.072 75.9429 145.095 77.2476 141.613C78.5524 138.131 79.6196 134.505 79.6196 133.555C79.6196 132.566 73.3151 125.801 64.8779 117.735C56.77 109.984 49.5298 102.465 48.7886 101.025C46.8386 97.2368 48.3678 92.7307 54.9185 82.9647C61.8952 72.5631 73.7399 57.1751 75.1879 56.6311C75.7989 56.4016 81.8941 57.2198 88.733 58.4485L101.167 60.6831L114.59 56.8416L128.012 53L141.387 56.8282L154.763 60.6567L167.554 58.3795C178.008 56.5186 180.612 56.3242 181.802 57.3164C183.866 59.0367 201.191 82.3995 204.799 88.3279C206.775 91.5738 207.867 94.6667 207.972 97.3129C208.132 101.344 208.118 101.361 192.257 116.669C183.525 125.095 176.386 132.534 176.392 133.199C176.397 133.864 177.471 137.477 178.776 141.228C181.624 149.418 181.727 152.371 179.33 157.091C176.802 162.068 169.448 168.686 166.444 168.686C165.119 168.686 159.677 166.49 154.352 163.805C147.209 160.205 142.983 157.289 138.238 152.688C134.701 149.257 131.807 145.736 131.807 144.862C131.807 143.987 136.504 138.877 142.244 133.505C148.667 127.495 152.682 123.019 152.682 121.87C152.682 120.843 151.188 116.116 149.361 111.365C145.468 101.239 145.228 97.9219 148.175 94.9851C149.349 93.8151 157.461 90.0816 166.201 86.6883C174.941 83.295 182.094 80.2231 182.095 79.8623C182.097 78.8472 174.016 77.867 165.552 77.856C159.119 77.8484 156.559 78.362 149.474 81.0888C144.7 82.9256 140.532 85.1576 139.859 86.2377C138.869 87.8277 139.234 90.7255 142.059 103.705C145.893 121.322 146.162 120.234 137.5 122.104C131.039 123.499 125.267 123.489 118.506 122.066C109.867 120.253 110.13 121.319 113.965 103.702C116.784 90.7468 117.153 87.8216 116.169 86.2347C115.471 85.1099 111.14 82.8706 105.605 80.7731C97.1285 77.5604 95.5847 77.2651 89.5828 77.7078C78.4081 78.5315 73.9024 79.2287 74.4104 80.0546C74.6779 80.4893 82.1508 83.7008 91.0173 87.1923C107.608 93.7252 109.973 95.3249 109.994 100.029C109.999 101.354 108.449 106.58 106.547 111.641C104.355 117.477 103.299 121.662 103.66 123.079C103.973 124.309 108.727 129.306 114.223 134.184C120.113 139.413 124.216 143.777 124.216 144.813C124.216 145.781 121.008 149.582 117.088 153.26C109.541 160.339 94.716 168.683 89.684 168.683C88.0458 168.683 85.6363 167.27 82.7763 164.632V164.635V164.635Z"/>
 </g>
 <defs>
  <filter id="filter0_d" width="264.648" height="248.338" x="-4.32" y="5.95" color-interpolation-filters="sRGB" filterUnits="userSpaceOnUse">
   <feFlood flood-opacity="0" result="BackgroundImageFix"/>
   <feColorMatrix in="SourceAlpha" type="matrix" values="0 0 0 0 0 0 0 0 0 0 0 0 0 0 0 0 0 0 127 0"/>
   <feOffset dy="4"/>
   <feGaussianBlur stdDeviation="5"/>
   <feColorMatrix type="matrix" values="0 0 0 0 0 0 0 0 0 0 0 0 0 0 0 0 0 0 0.4 0"/>
   <feBlend in2="BackgroundImageFix" mode="normal" result="effect1_dropShadow"/>
   <feBlend in="SourceGraphic" in2="effect1_dropShadow" mode="normal" result="shape"/>
  </filter>
  <filter id="filter1_f" width="180" height="170" x="38" y="43" color-interpolation-filters="sRGB" filterUnits="userSpaceOnUse">
   <feFlood flood-opacity="0" result="BackgroundImageFix"/>
   <feBlend in="SourceGraphic" in2="BackgroundImageFix" mode="normal" result="shape"/>
   <feGaussianBlur result="effect1_foregroundBlur" stdDeviation="5"/>
  </filter>
  <linearGradient id="paint0_linear" x1="5.676" x2="5.676" y1="11.947" y2="240.285" gradientUnits="userSpaceOnUse">
   <stop offset="0" stop-color="#076678"/>
   <stop offset="1" stop-color="#458588"/>
  </linearGradient>
  <linearGradient id="paint1_linear" x1="132.082" x2="132.082" y1="11.95" y2="240.29" gradientUnits="userSpaceOnUse">
   <stop stop-color="#ebdbb2"/>
   <stop offset=".125" stop-color="#ebdbb2" stop-opacity=".098"/>
   <stop offset=".925" stop-opacity=".098"/>
   <stop offset="1" stop-opacity=".498"/>
  </linearGradient>
  <linearGradient id="paint2_linear" x1="48" x2="48" y1="53" y2="203" gradientUnits="userSpaceOnUse">
   <stop offset="0" stop-color="#ebdbb2"/>
   <stop offset="1" stop-color="#d5c4a1"/>
  </linearGradient>
  <clipPath id="clip0">
   <rect fill="#ebdbb2" width="256" height="256"/>
  </clipPath>
 </defs>
</svg>

<svg width="256" height="256" fill="none" version="1.1" viewBox="0 0 256 256" xmlns="http://www.w3.org/2000/svg">
  <path d="m165.7 11.95c74.06 0 84.64 10.56 84.64 84.54v59.25c0 73.99-10.58 84.54-84.64 84.54h-75.37c-74.06 0-84.64-10.56-84.64-84.54v-59.25c0-73.99 10.58-84.54 84.64-84.54h75.37z" fill="url(#paint0_linear)"/>
  <path d="m165.1 11.95c4.328-0.0098 8.656 0.0393 12.98 0.1376 3.875 0.0786 7.751 0.226 11.63 0.4519 3.453 0.1965 6.905 0.4814 10.35 0.8548 3.059 0.334 6.118 0.786 9.148 1.346 2.715 0.501 5.4 1.14 8.046 1.916 2.4 0.6976 4.751 1.562 7.023 2.584 2.115 0.9432 4.141 2.063 6.059 3.35 1.839 1.238 3.561 2.653 5.135 4.215 1.564 1.572 2.98 3.282 4.219 5.119 1.289 1.916 2.41 3.94 3.364 6.042 1.023 2.279 1.889 4.618 2.597 7.005 0.777 2.643 1.417 5.325 1.918 8.037 0.561 3.026 1.013 6.072 1.348 9.127 0.374 3.439 0.659 6.877 0.856 10.33 0.226 3.861 0.373 7.732 0.462 11.59 0.088 4.323 0.138 8.646 0.128 12.96v58.21c0.01 4.323-0.04 8.636-0.128 12.96-0.089 3.871-0.236 7.732-0.462 11.59-0.197 3.449-0.482 6.897-0.856 10.33-0.335 3.055-0.787 6.111-1.348 9.137-0.501 2.702-1.141 5.384-1.918 8.027-0.708 2.387-1.574 4.735-2.597 7.005-0.954 2.112-2.075 4.126-3.364 6.042-1.239 1.837-2.655 3.557-4.219 5.119-1.574 1.562-3.296 2.977-5.135 4.215-1.918 1.287-3.944 2.407-6.059 3.35-2.272 1.022-4.623 1.886-7.023 2.594-2.646 0.776-5.331 1.414-8.046 1.906-3.03 0.569-6.089 1.011-9.148 1.346-3.443 0.373-6.895 0.658-10.35 0.854-3.875 0.226-7.751 0.374-11.63 0.462-4.328 0.088-8.656 0.138-12.98 0.128h-74.13c-4.328 0.01-8.656-0.04-12.98-0.128-3.876-0.088-7.751-0.236-11.63-0.462-3.452-0.196-6.905-0.481-10.35-0.854-3.059-0.335-6.118-0.777-9.148-1.346-2.715-0.492-5.4-1.13-8.046-1.906-2.4-0.708-4.751-1.572-7.023-2.594-2.115-0.943-4.141-2.063-6.059-3.35-1.839-1.238-3.561-2.653-5.135-4.215-1.564-1.562-2.98-3.282-4.22-5.119-1.289-1.916-2.41-3.93-3.364-6.042-1.023-2.27-1.889-4.618-2.597-7.005-0.7771-2.643-1.416-5.325-1.918-8.027-0.5607-3.026-1.013-6.082-1.348-9.137-0.3738-3.429-0.659-6.877-0.8558-10.33-0.2262-3.861-0.3738-7.722-0.4623-11.59-0.08852-4.323-0.1377-8.636-0.1279-12.96v-58.21c-0.00983-4.313 0.03935-8.636 0.1279-12.96 0.08853-3.861 0.2361-7.732 0.4623-11.59 0.1967-3.448 0.482-6.887 0.8558-10.33 0.3344-3.056 0.7869-6.101 1.348-9.127 0.5016-2.712 1.141-5.394 1.918-8.037 0.7082-2.387 1.574-4.726 2.597-7.005 0.9541-2.102 2.075-4.126 3.364-6.042 1.239-1.837 2.656-3.547 4.22-5.119 1.574-1.562 3.295-2.977 5.135-4.215 1.918-1.287 3.944-2.407 6.059-3.35 2.272-1.022 4.623-1.886 7.023-2.584 2.646-0.7761 5.331-1.415 8.046-1.916 3.03-0.56 6.089-1.012 9.148-1.346 3.443-0.3734 6.895-0.6583 10.35-0.8548 3.876-0.2259 7.751-0.3733 11.63-0.4519 4.328-0.0983 8.656-0.1474 12.98-0.1376h74.13zm0.01 4.009c4.298-0.0099 8.597 0.0393 12.9 0.1277 3.827 0.0884 7.653 0.2358 11.48 0.4519 3.384 0.1965 6.767 0.4716 10.13 0.8449 2.971 0.3144 5.932 0.7467 8.863 1.297 2.577 0.4716 5.134 1.081 7.653 1.818 2.223 0.6484 4.396 1.454 6.501 2.397 1.909 0.8548 3.738 1.867 5.469 3.026 1.623 1.09 3.138 2.338 4.525 3.724s2.636 2.898 3.738 4.519c1.16 1.729 2.174 3.547 3.029 5.443 0.945 2.112 1.751 4.284 2.4 6.494 0.748 2.515 1.348 5.06 1.83 7.634 0.541 2.928 0.974 5.875 1.298 8.842 0.374 3.36 0.65 6.73 0.846 10.11 0.217 3.822 0.374 7.634 0.453 11.46 0.088 4.293 0.137 8.577 0.137 12.87v58.21c0 4.293-0.049 8.577-0.137 12.87-0.079 3.822-0.236 7.644-0.453 11.46-0.196 3.38-0.472 6.75-0.846 10.12-0.324 2.957-0.757 5.904-1.298 8.832-0.482 2.574-1.082 5.119-1.83 7.634-0.649 2.22-1.455 4.382-2.4 6.494-0.855 1.896-1.869 3.724-3.029 5.443-1.102 1.631-2.351 3.144-3.738 4.529-1.387 1.376-2.902 2.623-4.525 3.714-1.731 1.159-3.56 2.171-5.469 3.026-2.105 0.953-4.278 1.749-6.501 2.397-2.519 0.737-5.076 1.346-7.653 1.818-2.931 0.55-5.892 0.982-8.863 1.306-3.364 0.364-6.747 0.649-10.13 0.836-3.826 0.216-7.652 0.373-11.48 0.452-4.298 0.098-8.597 0.137-12.9 0.137h-0.01-74.13-0.0099c-4.298 0-8.597-0.039-12.9-0.137-3.826-0.079-7.653-0.236-11.48-0.452-3.384-0.187-6.767-0.472-10.13-0.836-2.97-0.324-5.931-0.756-8.862-1.306-2.577-0.472-5.134-1.081-7.653-1.818-2.223-0.648-4.397-1.444-6.502-2.397-1.908-0.855-3.738-1.867-5.469-3.026-1.623-1.091-3.138-2.338-4.525-3.714-1.387-1.385-2.636-2.898-3.738-4.529-1.161-1.719-2.174-3.547-3.03-5.443-0.9443-2.112-1.751-4.274-2.4-6.494-0.7475-2.515-1.348-5.06-1.83-7.634-0.541-2.928-0.9738-5.875-1.298-8.832-0.3738-3.37-0.6492-6.74-0.8459-10.12-0.2164-3.812-0.3738-7.634-0.4525-11.46-0.08853-4.293-0.1377-8.577-0.1377-12.87v-58.21c0-4.293 0.04918-8.577 0.1377-12.87 0.07869-3.822 0.2361-7.634 0.4525-11.46 0.1967-3.38 0.4721-6.75 0.8459-10.11 0.3246-2.967 0.7574-5.914 1.298-8.842 0.4819-2.574 1.082-5.119 1.83-7.634 0.6492-2.21 1.456-4.382 2.4-6.494 0.8557-1.896 1.869-3.714 3.03-5.443 1.102-1.621 2.351-3.134 3.738-4.519s2.902-2.633 4.525-3.724c1.731-1.159 3.561-2.171 5.469-3.026 2.105-0.9431 4.279-1.749 6.502-2.397 2.518-0.7369 5.076-1.346 7.653-1.818 2.931-0.5502 5.892-0.9825 8.862-1.297 3.364-0.3733 6.748-0.6484 10.13-0.8449 3.826-0.2161 7.653-0.3635 11.48-0.4519 4.298-0.0884 8.597-0.1376 12.9-0.1277h0.0099 74.13 0.01z" clip-rule="evenodd" fill="url(#paint1_linear)" fill-rule="evenodd" opacity=".4"/>
  <g filter="url(#filter1_f)" opacity=".2">
    <path d="m124.1 200.4c-1.84-1.442-7.787-6.183-13.22-10.54-5.43-4.354-11.3-9.015-13.05-10.36-4.055-3.123-3.841-3.334 10.77-10.62 15-7.482 18.28-8.448 23.48-6.927 5.607 1.637 29.18 13.21 29.18 14.33 0 0.503-3.523 3.58-7.828 6.838-4.306 3.258-10.39 8.122-13.52 10.81-7.185 6.165-10.99 9.088-11.82 9.088-0.359 0-2.157-1.18-3.996-2.621zm-41.28-35.74c-4.655-4.293-7.846-10.04-7.88-14.18-0.0125-1.379 1.046-5.356 2.351-8.838 1.305-3.482 2.372-7.108 2.372-8.058 0-0.989-6.304-7.754-14.74-15.82-8.108-7.751-15.35-15.27-16.09-16.71-1.95-3.788-0.4208-8.294 6.13-18.06 6.977-10.4 18.82-25.79 20.27-26.33 0.611-0.2295 6.706 0.5887 13.55 1.817l12.43 2.235 26.84-7.683 26.75 7.657 12.79-2.277c10.45-1.861 13.06-2.055 14.25-1.063 2.064 1.72 19.39 25.08 23 31.01 1.976 3.246 3.068 6.339 3.173 8.985 0.16 4.031 0.146 4.048-15.72 19.36-8.732 8.426-15.87 15.86-15.86 16.53 5e-3 0.665 1.079 4.278 2.384 8.029 2.848 8.19 2.951 11.14 0.554 15.86-2.528 4.977-9.882 11.6-12.89 11.6-1.325 0-6.767-2.196-12.09-4.881-7.143-3.6-11.37-6.516-16.11-11.12-3.537-3.431-6.431-6.952-6.431-7.826 0-0.875 4.697-5.985 10.44-11.36 6.423-6.01 10.44-10.49 10.44-11.64 0-1.027-1.494-5.754-3.321-10.5-3.893-10.13-4.133-13.44-1.186-16.38 1.174-1.17 9.286-4.904 18.03-8.297s15.89-6.465 15.89-6.826c2e-3 -1.015-8.079-1.995-16.54-2.006-6.433-0.0076-8.993 0.506-16.08 3.233-4.774 1.837-8.942 4.069-9.615 5.149-0.99 1.59-0.625 4.488 2.2 17.47 3.834 17.62 4.103 16.53-4.559 18.4-6.461 1.395-12.23 1.385-18.99-0.038-8.639-1.813-8.376-0.747-4.541-18.36 2.819-12.96 3.188-15.88 2.204-17.47-0.698-1.125-5.029-3.364-10.56-5.462-8.476-3.213-10.02-3.508-16.02-3.065-11.17 0.8237-15.68 1.521-15.17 2.347 0.2675 0.4347 7.74 3.646 16.61 7.138 16.59 6.533 18.96 8.133 18.98 12.84 5e-3 1.325-1.545 6.551-3.447 11.61-2.192 5.836-3.248 10.02-2.887 11.44 0.313 1.23 5.067 6.227 10.56 11.1 5.89 5.229 9.993 9.593 9.993 10.63 0 0.968-3.208 4.769-7.128 8.447-7.547 7.079-22.37 15.42-27.4 15.42-1.638 0-4.048-1.413-6.908-4.051v3e-3z"/>
  </g>
  <path d="m124.1 200.4c-1.84-1.442-7.787-6.183-13.22-10.54-5.43-4.354-11.3-9.015-13.05-10.36-4.055-3.123-3.841-3.334 10.77-10.62 15-7.482 18.28-8.448 23.48-6.927 5.607 1.637 29.18 13.21 29.18 14.33 0 0.503-3.523 3.58-7.828 6.838-4.306 3.258-10.39 8.122-13.52 10.81-7.185 6.165-10.99 9.088-11.82 9.088-0.359 0-2.157-1.18-3.996-2.621zm-41.28-35.74c-4.655-4.293-7.846-10.04-7.88-14.18-0.0125-1.379 1.046-5.356 2.351-8.838 1.305-3.482 2.372-7.108 2.372-8.058 0-0.989-6.304-7.754-14.74-15.82-8.108-7.751-15.35-15.27-16.09-16.71-1.95-3.788-0.4208-8.294 6.13-18.06 6.977-10.4 18.82-25.79 20.27-26.33 0.611-0.2295 6.706 0.5887 13.55 1.817l12.43 2.235 26.84-7.683 26.75 7.657 12.79-2.277c10.45-1.861 13.06-2.055 14.25-1.063 2.064 1.72 19.39 25.08 23 31.01 1.976 3.246 3.068 6.339 3.173 8.985 0.16 4.031 0.146 4.048-15.72 19.36-8.732 8.426-15.87 15.86-15.86 16.53 5e-3 0.665 1.079 4.278 2.384 8.029 2.848 8.19 2.951 11.14 0.554 15.86-2.528 4.977-9.882 11.6-12.89 11.6-1.325 0-6.767-2.196-12.09-4.881-7.143-3.6-11.37-6.516-16.11-11.12-3.537-3.431-6.431-6.952-6.431-7.826 0-0.875 4.697-5.985 10.44-11.36 6.423-6.01 10.44-10.49 10.44-11.64 0-1.027-1.494-5.754-3.321-10.5-3.893-10.13-4.133-13.44-1.186-16.38 1.174-1.17 9.286-4.904 18.03-8.297s15.89-6.465 15.89-6.826c2e-3 -1.015-8.079-1.995-16.54-2.006-6.433-0.0076-8.993 0.506-16.08 3.233-4.774 1.837-8.942 4.069-9.615 5.149-0.99 1.59-0.625 4.488 2.2 17.47 3.834 17.62 4.103 16.53-4.559 18.4-6.461 1.395-12.23 1.385-18.99-0.038-8.639-1.813-8.376-0.747-4.541-18.36 2.819-12.96 3.188-15.88 2.204-17.47-0.698-1.125-5.029-3.364-10.56-5.462-8.476-3.213-10.02-3.508-16.02-3.065-11.17 0.8237-15.68 1.521-15.17 2.347 0.2675 0.4347 7.74 3.646 16.61 7.138 16.59 6.533 18.96 8.133 18.98 12.84 5e-3 1.325-1.545 6.551-3.447 11.61-2.192 5.836-3.248 10.02-2.887 11.44 0.313 1.23 5.067 6.227 10.56 11.1 5.89 5.229 9.993 9.593 9.993 10.63 0 0.968-3.208 4.769-7.128 8.447-7.547 7.079-22.37 15.42-27.4 15.42-1.638 0-4.048-1.413-6.908-4.051v3e-3z" fill="url(#paint2_linear)"/>
  <defs>
    <linearGradient id="paint0_linear" x1="5.676" x2="5.676" y1="11.95" y2="240.3" gradientUnits="userSpaceOnUse">
      <stop stop-color="#076678" offset="0"/>
      <stop stop-color="#458588" offset="1"/>
    </linearGradient>
    <linearGradient id="paint1_linear" x1="132.1" x2="132.1" y1="11.95" y2="240.3" gradientUnits="userSpaceOnUse">
      <stop stop-color="#ebdbb2" offset="0"/>
      <stop stop-color="#ebdbb2" stop-opacity=".098" offset=".125"/>
      <stop stop-opacity=".098" offset=".925"/>
      <stop stop-opacity=".498" offset="1"/>
    </linearGradient>
    <linearGradient id="paint2_linear" x1="48" x2="48" y1="53" y2="203" gradientUnits="userSpaceOnUse">
      <stop stop-color="#ebdbb2" offset="0"/>
      <stop stop-color="#d5c4a1" offset="1"/>
    </linearGradient>
  </defs>
</svg>
